svgs/duotone/seal-exclamation.svg

<svg xmlns="http://www.w3.org/2000/svg" viewBox="0 0 512 512"><!--! Font Awesome Pro 6.4.0 by @fontawesome - https://fontawesome.com License - https://fontawesome.com/license (Commercial License) Copyright 2023 Fonticons, Inc. --><defs><style>.fa-secondary{opacity:.4}</style></defs><path class="fa-primary" d="M280 152c0-13.3-10.7-24-24-24s-24 10.7-24 24V264c0 13.3 10.7 24 24 24s24-10.7 24-24V152zM256 384a32 32 0 1 0 0-64 32 32 0 1 0 0 64z"/><path class="fa-secondary" d="M222.1 18.4c18.7-18.7 49.1-18.7 67.9 0L335.5 64H400c26.5 0 48 21.5 48 48v64.5l45.6 45.6c18.7 18.7 18.7 49.1 0 67.9L448 335.5V400c0 26.5-21.5 48-48 48H335.5l-45.6 45.6c-18.7 18.7-49.1 18.7-67.9 0L176.5 448H112c-26.5 0-48-21.5-48-48V335.5L18.4 289.9c-18.7-18.7-18.7-49.1 0-67.9L64 176.5V112c0-26.5 21.5-48 48-48h64.5l45.6-45.6zM256 128c-13.3 0-24 10.7-24 24V264c0 13.3 10.7 24 24 24s24-10.7 24-24V152c0-13.3-10.7-24-24-24zm32 224a32 32 0 1 0 -64 0 32 32 0 1 0 64 0z"/></svg>

<svg xmlns="http://www.w3.org/2000/svg" viewBox="0 0 512 512"><!--! Font Awesome Pro 6.3.0 by @fontawesome - https://fontawesome.com License - https://fontawesome.com/license (Commercial License) Copyright 2023 Fonticons, Inc. --><defs><style>.fa-secondary{opacity:.4}</style></defs><path class="fa-primary" d="M280 264C280 277.3 269.3 288 256 288C242.7 288 232 277.3 232 264V152C232 138.7 242.7 128 256 128C269.3 128 280 138.7 280 152V264zM224 352C224 334.3 238.3 320 256 320C273.7 320 288 334.3 288 352C288 369.7 273.7 384 256 384C238.3 384 224 369.7 224 352z"/><path class="fa-secondary" d="M222.1 18.41C240.8-.3309 271.2-.3309 289.9 18.41L335.5 64H400C426.5 64 448 85.49 448 112V176.5L493.6 222.1C512.3 240.8 512.3 271.2 493.6 289.9L448 335.5V400C448 426.5 426.5 448 400 448H335.5L289.9 493.6C271.2 512.3 240.8 512.3 222.1 493.6L176.5 448H112C85.49 448 64 426.5 64 400V335.5L18.41 289.9C-.3328 271.2-.3328 240.8 18.41 222.1L64 176.5V112C64 85.49 85.49 64 112 64H176.5L222.1 18.41zM232 152V264C232 277.3 242.7 288 256 288C269.3 288 280 277.3 280 264V152C280 138.7 269.3 128 256 128C242.7 128 232 138.7 232 152zM256 320C238.3 320 224 334.3 224 352C224 369.7 238.3 384 256 384C273.7 384 288 369.7 288 352C288 334.3 273.7 320 256 320z"/></svg>
